woocommerce/payment-gateway/assets/images/card-cc-invalid.svg

<svg width="240" height="150" fill="none" xmlns="http://www.w3.org/2000/svg"><g clip-path="url(#clip0)" fill="#485F6F"><path d="M84.2 97H57.8c-2.3 0-4.6.9-6.2 2.5-1.7 1.6-2.6 3.8-2.6 6s.9 4.4 2.6 6c1.7 1.6 3.9 2.5 6.2 2.5h26.4c2.3 0 4.6-.9 6.2-2.5 1.7-1.6 2.6-3.8 2.6-6s-.9-4.4-2.6-6c-1.6-1.6-3.9-2.5-6.2-2.5z"/><path d="M151.8 132.4H39.6c-2.4 0-4.6-.9-6.3-2.6-1.7-1.7-2.6-3.9-2.6-6.2v-53c0-1.2.5-2.3 1.3-3.1.8-.8 2-1.3 3.1-1.3h133.5c8.4-5.9 18.7-9.3 29.8-9.3 10.1 0 19.5 2.9 27.5 7.9V26.5c0-7-2.8-13.8-7.8-18.7-5-5-11.8-7.8-18.8-7.8H39.6c-7 0-13.8 2.8-18.8 7.8S13 19.5 13 26.5v97.1c0 7 2.8 13.8 7.8 18.7 5 5 11.8 7.8 18.8 7.8h126.5c-6-4.8-10.9-10.9-14.3-17.7zM30.8 26.5c0-2.3.9-4.6 2.6-6.2 1.7-1.7 3.9-2.6 6.3-2.6h159.8c2.4 0 4.6.9 6.3 2.6 1.7 1.7 2.6 3.9 2.6 6.2v8.8c0 1.2-.5 2.3-1.3 3.1-.8.8-2 1.3-3.1 1.3H35.2c-1.2 0-2.3-.5-3.1-1.3-.8-.8-1.3-1.9-1.3-3.1v-8.8z"/><path d="M198.7 68.4c-8.1 0-16 2.4-22.8 6.8-6.7 4.5-12 10.8-15.1 18.2-3.1 7.4-3.9 15.5-2.3 23.4 1.6 7.9 5.5 15.1 11.2 20.7 5.7 5.6 13 9.5 21 11.1 8 1.6 16.2.8 23.7-2.3 7.5-3.1 13.9-8.3 18.4-14.9 4.5-6.7 6.9-14.5 6.9-22.5 0-10.7-4.3-21-12-28.6-7.7-7.6-18.2-11.9-29-11.9zm19.1 52.8c.5.4.8.9 1.1 1.5.3.6.4 1.2.4 1.8 0 .6-.1 1.3-.3 1.8-.2.6-.6 1.1-1 1.6-.4.4-1 .8-1.6 1-.6.2-1.2.4-1.9.3-.7-.1-1.3-.1-1.8-.4-.6-.3-1.1-.6-1.5-1.1l-11.3-11.2c-.3-.3-.7-.5-1.1-.5-.4 0-.8.2-1.1.5l-11.3 11.2c-.9.8-2.1 1.3-3.3 1.3-1.2 0-2.4-.5-3.3-1.4-.9-.9-1.4-2-1.4-3.2 0-1.2.4-2.4 1.3-3.3l11.3-11.2c.3-.3.5-.7.5-1.1 0-.4-.2-.8-.5-1.1l-11.3-11.2c-.8-.9-1.3-2.1-1.3-3.3 0-1.2.5-2.4 1.4-3.2.9-.9 2-1.3 3.3-1.4 1.2 0 2.4.4 3.3 1.3l11.3 11.2c.3.3.7.5 1.1.5.4 0 .8-.2 1.1-.5l11.3-11.2c.9-.8 2.1-1.3 3.3-1.3 1.2 0 2.4.5 3.3 1.4.9.9 1.4 2 1.4 3.2 0 1.2-.4 2.4-1.3 3.3l-11.3 11.2c-.3.3-.5.7-.5 1.1 0 .4.2.8.5 1.1l11.2 11.3z"/></g><defs><clipPath id="clip0"><path fill="#fff" d="M13 0h226.7v150H13z"/></clipPath></defs></svg>

<svg width="240" height="150" viewBox="0 0 240 150" fill="none" xmlns="http://www.w3.org/2000/svg">
<g clip-path="url(#clip0)">
<path d="M84.2 97H57.8C55.5 97 53.2 97.9 51.6 99.5C49.9 101.1 49 103.3 49 105.5C49 107.7 49.9 109.9 51.6 111.5C53.3 113.1 55.5 114 57.8 114H84.2C86.5 114 88.8 113.1 90.4 111.5C92.1 109.9 93 107.7 93 105.5C93 103.3 92.1 101.1 90.4 99.5C88.8 97.9 86.5 97 84.2 97Z" fill="#485F6F"/>
<path d="M151.8 132.4H39.6C37.2 132.4 35 131.5 33.3 129.8C31.6 128.1 30.7 125.9 30.7 123.6V70.6C30.7 69.4 31.2 68.3 32 67.5C32.8 66.7 34 66.2 35.1 66.2H168.6C177 60.3 187.3 56.9 198.4 56.9C208.5 56.9 217.9 59.8 225.9 64.8V26.5C225.9 19.5 223.1 12.7 218.1 7.8C213.1 2.8 206.3 0 199.3 0H39.6C32.6 0 25.8 2.8 20.8 7.8C15.8 12.8 13 19.5 13 26.5V123.6C13 130.6 15.8 137.4 20.8 142.3C25.8 147.3 32.6 150.1 39.6 150.1H166.1C160.1 145.3 155.2 139.2 151.8 132.4ZM30.8 26.5C30.8 24.2 31.7 21.9 33.4 20.3C35.1 18.6 37.3 17.7 39.7 17.7H199.5C201.9 17.7 204.1 18.6 205.8 20.3C207.5 22 208.4 24.2 208.4 26.5V35.3C208.4 36.5 207.9 37.6 207.1 38.4C206.3 39.2 205.1 39.7 204 39.7H35.2C34 39.7 32.9 39.2 32.1 38.4C31.3 37.6 30.8 36.5 30.8 35.3V26.5V26.5Z" fill="#485F6F"/>
<path d="M198.7 68.4C190.6 68.4 182.7 70.8 175.9 75.2C169.2 79.7 163.9 86 160.8 93.4C157.7 100.8 156.9 108.9 158.5 116.8C160.1 124.7 164 131.9 169.7 137.5C175.4 143.1 182.7 147 190.7 148.6C198.7 150.2 206.9 149.4 214.4 146.3C221.9 143.2 228.3 138 232.8 131.4C237.3 124.7 239.7 116.9 239.7 108.9C239.7 98.2 235.4 87.9 227.7 80.3C220 72.7 209.5 68.4 198.7 68.4ZM217.8 121.2C218.3 121.6 218.6 122.1 218.9 122.7C219.2 123.3 219.3 123.9 219.3 124.5C219.3 125.1 219.2 125.8 219 126.3C218.8 126.9 218.4 127.4 218 127.9C217.6 128.3 217 128.7 216.4 128.9C215.8 129.1 215.2 129.3 214.5 129.2C213.8 129.1 213.2 129.1 212.7 128.8C212.1 128.5 211.6 128.2 211.2 127.7L199.9 116.5C199.6 116.2 199.2 116 198.8 116C198.4 116 198 116.2 197.7 116.5L186.4 127.7C185.5 128.5 184.3 129 183.1 129C181.9 129 180.7 128.5 179.8 127.6C178.9 126.7 178.4 125.6 178.4 124.4C178.4 123.2 178.8 122 179.7 121.1L191 109.9C191.3 109.6 191.5 109.2 191.5 108.8C191.5 108.4 191.3 108 191 107.7L179.7 96.5C178.9 95.6 178.4 94.4 178.4 93.2C178.4 92 178.9 90.8 179.8 90C180.7 89.1 181.8 88.7 183.1 88.6C184.3 88.6 185.5 89 186.4 89.9L197.7 101.1C198 101.4 198.4 101.6 198.8 101.6C199.2 101.6 199.6 101.4 199.9 101.1L211.2 89.9C212.1 89.1 213.3 88.6 214.5 88.6C215.7 88.6 216.9 89.1 217.8 90C218.7 90.9 219.2 92 219.2 93.2C219.2 94.4 218.8 95.6 217.9 96.5L206.6 107.7C206.3 108 206.1 108.4 206.1 108.8C206.1 109.2 206.3 109.6 206.6 109.9L217.8 121.2Z" fill="#485F6F"/>
</g>
<defs>
<clipPath id="clip0">
<rect x="13" width="226.7" height="150" fill="white"/>
</clipPath>
</defs>
</svg>
